report_00007_2020-12-11T15:55:29.892Z/first-contentful-paint/comparison/line/2_vs_3.svg

<svg width="640" height="500" xmlns="http://www.w3.org/2000/svg" xmlns:xlink="http://www.w3.org/1999/xlink"><path fill="#fff" d="M0 0h640v500H0z"/><defs><path id="d" stroke-width=".222" stroke="currentColor" d="M-1-1h2v2h-2z"/><path id="b" stroke-width=".222" stroke="currentColor" d="M0-1.33l-1.33 2h2.66z"/><path id="f" stroke-width=".222" stroke="currentColor" d="M0 1.33L1.265.411.782-1.067l-1.564-.009-.483 1.487z"/><use xlink:href="#b" id="c" stroke="currentColor" transform="rotate(180)"/><use xlink:href="#d" id="e" stroke="currentColor" transform="rotate(45)"/><circle id="a" stroke-width=".222" stroke="currentColor" cx="0" cy="0" r="1"/></defs><g fill="none" color="#000" stroke="currentColor"><path stroke="#000" d="M62.2 417.1h9m543.8 0h-9"/><text transform="translate(53.9 421)" stroke="none" fill="#000" font-family="Arial" font-size="12" text-anchor="end"><tspan>1950</tspan></text></g><g fill="none" color="#000" stroke="currentColor"><path stroke="#000" d="M62.2 341.8h9m543.8 0h-9"/><text transform="translate(53.9 345.7)" stroke="none" fill="#000" font-family="Arial" font-size="12" text-anchor="end"><tspan>2000</tspan></text></g><g fill="none" color="#000" stroke="currentColor"><path stroke="#000" d="M62.2 266.5h9m543.8 0h-9"/><text transform="translate(53.9 270.4)" stroke="none" fill="#000" font-family="Arial" font-size="12" text-anchor="end"><tspan>2050</tspan></text></g><g fill="none" color="#000" stroke="currentColor"><path stroke="#000" d="M62.2 191.3h9m543.8 0h-9"/><text transform="translate(53.9 195.2)" stroke="none" fill="#000" font-family="Arial" font-size="12" text-anchor="end"><tspan>2100</tspan></text></g><g fill="none" color="#000" stroke="currentColor"><path stroke="#000" d="M62.2 116h9m543.8 0h-9"/><text transform="translate(53.9 119.9)" stroke="none" fill="#000" font-family="Arial" font-size="12" text-anchor="end"><tspan>2150</tspan></text></g><g fill="none" color="#000" stroke="currentColor"><path stroke="#000" d="M62.2 40.8h9m543.8 0h-9"/><text transform="translate(53.9 44.7)" stroke="none" fill="#000" font-family="Arial" font-size="12" text-anchor="end"><tspan>2200</tspan></text></g><g fill="none" color="#000" stroke="currentColor"><path stroke="#000" d="M62.2 428v-9m0-400.9v9"/><text transform="translate(62.2 449.9)" stroke="none" fill="#000" font-family="Arial" font-size="12" text-anchor="middle"><tspan>0</tspan></text></g><g fill="none" color="#000" stroke="currentColor"><path stroke="#000" d="M118 428v-9m0-400.9v9"/><text transform="translate(118 449.9)" stroke="none" fill="#000" font-family="Arial" font-size="12" text-anchor="middle"><tspan>10</tspan></text></g><g fill="none" color="#000" stroke="currentColor"><path stroke="#000" d="M173.9 428v-9m0-400.9v9"/><text transform="translate(173.9 449.9)" stroke="none" fill="#000" font-family="Arial" font-size="12" text-anchor="middle"><tspan>20</tspan></text></g><g fill="none" color="#000" stroke="currentColor"><path stroke="#000" d="M229.7 428v-9m0-400.9v9"/><text transform="translate(229.7 449.9)" stroke="none" fill="#000" font-family="Arial" font-size="12" text-anchor="middle"><tspan>30</tspan></text></g><g fill="none" color="#000" stroke="currentColor"><path stroke="#000" d="M285.6 428v-9m0-400.9v9"/><text transform="translate(285.6 449.9)" stroke="none" fill="#000" font-family="Arial" font-size="12" text-anchor="middle"><tspan>40</tspan></text></g><g fill="none" color="#000" stroke="currentColor"><path stroke="#000" d="M341.4 428v-9m0-400.9v9"/><text transform="translate(341.4 449.9)" stroke="none" fill="#000" font-family="Arial" font-size="12" text-anchor="middle"><tspan>50</tspan></text></g><g fill="none" color="#000" stroke="currentColor"><path stroke="#000" d="M397.2 428v-9m0-400.9v9"/><text transform="translate(397.2 449.9)" stroke="none" fill="#000" font-family="Arial" font-size="12" text-anchor="middle"><tspan>60</tspan></text></g><g fill="none" color="#000" stroke="currentColor"><path stroke="#000" d="M453.1 428v-9m0-400.9v9"/><text transform="translate(453.1 449.9)" stroke="none" fill="#000" font-family="Arial" font-size="12" text-anchor="middle"><tspan>70</tspan></text></g><g fill="none" color="#000" stroke="currentColor"><path stroke="#000" d="M508.9 428v-9m0-400.9v9"/><text transform="translate(508.9 449.9)" stroke="none" fill="#000" font-family="Arial" font-size="12" text-anchor="middle"><tspan>80</tspan></text></g><g fill="none" color="#000" stroke="currentColor"><path stroke="#000" d="M564.7 428v-9m0-400.9v9"/><text transform="translate(564.7 449.9)" stroke="none" fill="#000" font-family="Arial" font-size="12" text-anchor="middle"><tspan>90</tspan></text></g><path stroke="#000" d="M62.2 18.1V428H615V18.1H62.2z" fill="none" color="#000"/><text transform="translate(279.8 467.9)" stroke="none" fill="#000" font-family="Arial" font-size="12" text-anchor="end" color="#000"><tspan>pages+cached</tspan></text><path stroke="#9400D3" d="M288.1 464h42.2M62.2 420.1l5.6-53.4 5.6-328 5.6 337 5.5 3.9 5.6-349.2 5.6 348.3 5.6-113.3 5.6 113.2 5.6-2.9 5.5 3.9L123.6 26l5.6 355.6 5.6-3.3 5.6-1 5.6.3 5.5-348.2 5.6 351 5.6-6.1 5.6 6.7 5.6 2.9 5.6-5.7L185 33.8l5.6 348 5.6 1.8 5.6-2.6 5.6-2L213 36.9l5.5 345.2 5.6-5.5 5.6 5.5 5.6-2.6 5.6-234.1 5.6-113.7 5.6 4.9 5.5 339.9 5.6 4 5.6-351 5.6 356.4L280 33l5.6 348 5.5-.4 5.6-1.7 5.6-2.4 5.6 6.4 5.6-3.9 5.6 5.8 5.5-4.4 5.6.9 5.6-1.8 5.6-232 5.6 235.4 5.6-2 5.5-349.3 5.6 347.8 5.6 2 5.6-349.7 5.6 346.7 5.6-227.2 5.5 233.4 5.6-346.3 5.6-6.6 5.6 351.5L414 32.5l5.6 349.4 5.5 2.3 5.6-5.7 5.6 4.7 5.6 1.2 5.6-5.6L453.1 35l5.6 346.5 5.5-347.6 5.6 347.9 5.6-4.2 5.6 6.3 5.6-3.8 5.6 1.9 5.5 2.7 5.6-1.9L508.9 31l5.6 351.4 5.6-.2 5.6-234.3 5.5 239.9 5.6-4.8 5.6.3 5.6-.9 5.6-345.1 5.6-.9 5.5 346.8 5.6.6 5.6-4.3 5.6 1.5 5.6 1.7 5.6-343.5 5.5 116.2 5.6 225.6 5.6.6L615 30.1" fill="none" color="#000"/><text transform="translate(279.8 485.9)" stroke="none" fill="#000" font-family="Arial" font-size="12" text-anchor="end" color="#000"><tspan>pages+cached+nointeractive</tspan></text><path stroke="#009E73" d="M288.1 482h42.2M62.2 380l5.6-340.4 5.6 344.7 5.6-1.6 5.5-1.4 5.6.5 5.6-5.7 5.6-334.6 5.6-6.2 5.6 112.8 5.5-111 5.6 346.9 5.6-2 5.6-1.5 5.6 3.4 5.6-3.5 5.5 6.4 5.6-353.9 5.6 3.8 5.6 346 5.6-345.8 5.6 344.8 5.5.6 5.6-1 5.6 3.6 5.6-5.4 5.6-340.2 5.6-3.7 5.5 346.9 5.6-346.1 5.6 108.3 5.6 8.1 5.6-1 5.6-110.2 5.6-4.4 5.5 113 5.6 231.4 5.6.3 5.6-231L280 38.4l5.6 343.6 5.5-347.9 5.6 4.5 5.6 341 5.6 2.9 5.6 1 5.6-233.3 5.5-113.1 5.6 346.9 5.6-348.1 5.6 2.3 5.6 344.6 5.6 1.1 5.5-234 5.6.5 5.6 2.7 5.6-117.5 5.6-1.4 5.6 10.5 5.5-6.6 5.6-5.7 5.6 3.3 5.6 350.7L414 35.7l5.6-.3 5.5 2.9 5.6 343.7 5.6-342.7 5.6-4.8 5.6 348.6 5.6-341.6 5.6-3.6 5.5 112.7 5.6-111.8 5.6-3.7 5.6 3.7 5.6-2.5 5.6-2.3 5.5 2.1 5.6.4 5.6 352.1 5.6-352.5 5.6-3.1 5.6 352.6 5.5 6 5.6-8.4 5.6-232.9L548 33.9l5.6 4.9 5.6 114.9 5.5-117.3 5.6-4 5.6 348 5.6-340.8 5.6.8 5.6.8 5.5-1.6 5.6 110.1 5.6 234.5L615 34.4" fill="none" color="#000"/><text transform="translate(554.4 467.9)" stroke="none" fill="#000" font-family="Arial" font-size="12" text-anchor="end" color="#000"><tspan>score p10=2336</tspan></text><path stroke="#56B4E9" d="M562.7 464h42.2" fill="none" color="#000"/><g><text transform="translate(554.4 485.9)" stroke="none" fill="#000" font-family="Arial" font-size="12" text-anchor="end" color="#000"><tspan>score median=4000</tspan></text><path stroke="#E69F00" d="M562.7 482h42.2" fill="none" color="#000"/></g><g fill="none" color="#000" stroke="currentColor"><path stroke="#000" d="M62.2 18.1V428H615V18.1H62.2z"/></g></svg>

<?xml version="1.0" encoding="utf-8"  standalone="no"?>
<svg 
 width="640" height="500"
 viewBox="0 0 640 500"
 xmlns="http://www.w3.org/2000/svg"
 xmlns:xlink="http://www.w3.org/1999/xlink"
>

<title>Gnuplot</title>
<desc>Produced by GNUPLOT 5.4 patchlevel 0 </desc>

<g id="gnuplot_canvas">

<rect x="0" y="0" width="640" height="500" fill="#ffffff"/>
<defs>

	<circle id='gpDot' r='0.5' stroke-width='0.5' stroke='currentColor'/>
	<path id='gpPt0' stroke-width='0.222' stroke='currentColor' d='M-1,0 h2 M0,-1 v2'/>
	<path id='gpPt1' stroke-width='0.222' stroke='currentColor' d='M-1,-1 L1,1 M1,-1 L-1,1'/>
	<path id='gpPt2' stroke-width='0.222' stroke='currentColor' d='M-1,0 L1,0 M0,-1 L0,1 M-1,-1 L1,1 M-1,1 L1,-1'/>
	<rect id='gpPt3' stroke-width='0.222' stroke='currentColor' x='-1' y='-1' width='2' height='2'/>
	<rect id='gpPt4' stroke-width='0.222' stroke='currentColor' fill='currentColor' x='-1' y='-1' width='2' height='2'/>
	<circle id='gpPt5' stroke-width='0.222' stroke='currentColor' cx='0' cy='0' r='1'/>
	<use xlink:href='#gpPt5' id='gpPt6' fill='currentColor' stroke='none'/>
	<path id='gpPt7' stroke-width='0.222' stroke='currentColor' d='M0,-1.33 L-1.33,0.67 L1.33,0.67 z'/>
	<use xlink:href='#gpPt7' id='gpPt8' fill='currentColor' stroke='none'/>
	<use xlink:href='#gpPt7' id='gpPt9' stroke='currentColor' transform='rotate(180)'/>
	<use xlink:href='#gpPt9' id='gpPt10' fill='currentColor' stroke='none'/>
	<use xlink:href='#gpPt3' id='gpPt11' stroke='currentColor' transform='rotate(45)'/>
	<use xlink:href='#gpPt11' id='gpPt12' fill='currentColor' stroke='none'/>
	<path id='gpPt13' stroke-width='0.222' stroke='currentColor' d='M0,1.330 L1.265,0.411 L0.782,-1.067 L-0.782,-1.076 L-1.265,0.411 z'/>
	<use xlink:href='#gpPt13' id='gpPt14' fill='currentColor' stroke='none'/>
	<filter id='textbox' filterUnits='objectBoundingBox' x='0' y='0' height='1' width='1'>
	  <feFlood flood-color='#FFFFFF' flood-opacity='1' result='bgnd'/>
	  <feComposite in='SourceGraphic' in2='bgnd' operator='atop'/>
	</filter>
	<filter id='greybox' filterUnits='objectBoundingBox' x='0' y='0' height='1' width='1'>
	  <feFlood flood-color='lightgrey' flood-opacity='1' result='grey'/>
	  <feComposite in='SourceGraphic' in2='grey' operator='atop'/>
	</filter>
</defs>
<g fill="none" color="#FFFFFF" stroke="black" stroke-width="1.00" stroke-linecap="butt" stroke-linejoin="miter">
</g>
<g fill="none" color="black" stroke="currentColor" stroke-width="1.00" stroke-linecap="butt" stroke-linejoin="miter">
	<path stroke='black'  d='M62.2,417.1 L71.2,417.1 M615.0,417.1 L606.0,417.1  '/>	<g transform="translate(53.9,421.0)" stroke="none" fill="black" font-family="Arial" font-size="12.00"  text-anchor="end">
		<text><tspan font-family="Arial" > 1950</tspan></text>
	</g>
</g>
<g fill="none" color="black" stroke="currentColor" stroke-width="1.00" stroke-linecap="butt" stroke-linejoin="miter">
	<path stroke='black'  d='M62.2,341.8 L71.2,341.8 M615.0,341.8 L606.0,341.8  '/>	<g transform="translate(53.9,345.7)" stroke="none" fill="black" font-family="Arial" font-size="12.00"  text-anchor="end">
		<text><tspan font-family="Arial" > 2000</tspan></text>
	</g>
</g>
<g fill="none" color="black" stroke="currentColor" stroke-width="1.00" stroke-linecap="butt" stroke-linejoin="miter">
	<path stroke='black'  d='M62.2,266.5 L71.2,266.5 M615.0,266.5 L606.0,266.5  '/>	<g transform="translate(53.9,270.4)" stroke="none" fill="black" font-family="Arial" font-size="12.00"  text-anchor="end">
		<text><tspan font-family="Arial" > 2050</tspan></text>
	</g>
</g>
<g fill="none" color="black" stroke="currentColor" stroke-width="1.00" stroke-linecap="butt" stroke-linejoin="miter">
	<path stroke='black'  d='M62.2,191.3 L71.2,191.3 M615.0,191.3 L606.0,191.3  '/>	<g transform="translate(53.9,195.2)" stroke="none" fill="black" font-family="Arial" font-size="12.00"  text-anchor="end">
		<text><tspan font-family="Arial" > 2100</tspan></text>
	</g>
</g>
<g fill="none" color="black" stroke="currentColor" stroke-width="1.00" stroke-linecap="butt" stroke-linejoin="miter">
	<path stroke='black'  d='M62.2,116.0 L71.2,116.0 M615.0,116.0 L606.0,116.0  '/>	<g transform="translate(53.9,119.9)" stroke="none" fill="black" font-family="Arial" font-size="12.00"  text-anchor="end">
		<text><tspan font-family="Arial" > 2150</tspan></text>
	</g>
</g>
<g fill="none" color="black" stroke="currentColor" stroke-width="1.00" stroke-linecap="butt" stroke-linejoin="miter">
	<path stroke='black'  d='M62.2,40.8 L71.2,40.8 M615.0,40.8 L606.0,40.8  '/>	<g transform="translate(53.9,44.7)" stroke="none" fill="black" font-family="Arial" font-size="12.00"  text-anchor="end">
		<text><tspan font-family="Arial" > 2200</tspan></text>
	</g>
</g>
<g fill="none" color="black" stroke="currentColor" stroke-width="1.00" stroke-linecap="butt" stroke-linejoin="miter">
	<path stroke='black'  d='M62.2,428.0 L62.2,419.0 M62.2,18.1 L62.2,27.1  '/>	<g transform="translate(62.2,449.9)" stroke="none" fill="black" font-family="Arial" font-size="12.00"  text-anchor="middle">
		<text><tspan font-family="Arial" > 0</tspan></text>
	</g>
</g>
<g fill="none" color="black" stroke="currentColor" stroke-width="1.00" stroke-linecap="butt" stroke-linejoin="miter">
	<path stroke='black'  d='M118.0,428.0 L118.0,419.0 M118.0,18.1 L118.0,27.1  '/>	<g transform="translate(118.0,449.9)" stroke="none" fill="black" font-family="Arial" font-size="12.00"  text-anchor="middle">
		<text><tspan font-family="Arial" > 10</tspan></text>
	</g>
</g>
<g fill="none" color="black" stroke="currentColor" stroke-width="1.00" stroke-linecap="butt" stroke-linejoin="miter">
	<path stroke='black'  d='M173.9,428.0 L173.9,419.0 M173.9,18.1 L173.9,27.1  '/>	<g transform="translate(173.9,449.9)" stroke="none" fill="black" font-family="Arial" font-size="12.00"  text-anchor="middle">
		<text><tspan font-family="Arial" > 20</tspan></text>
	</g>
</g>
<g fill="none" color="black" stroke="currentColor" stroke-width="1.00" stroke-linecap="butt" stroke-linejoin="miter">
	<path stroke='black'  d='M229.7,428.0 L229.7,419.0 M229.7,18.1 L229.7,27.1  '/>	<g transform="translate(229.7,449.9)" stroke="none" fill="black" font-family="Arial" font-size="12.00"  text-anchor="middle">
		<text><tspan font-family="Arial" > 30</tspan></text>
	</g>
</g>
<g fill="none" color="black" stroke="currentColor" stroke-width="1.00" stroke-linecap="butt" stroke-linejoin="miter">
	<path stroke='black'  d='M285.6,428.0 L285.6,419.0 M285.6,18.1 L285.6,27.1  '/>	<g transform="translate(285.6,449.9)" stroke="none" fill="black" font-family="Arial" font-size="12.00"  text-anchor="middle">
		<text><tspan font-family="Arial" > 40</tspan></text>
	</g>
</g>
<g fill="none" color="black" stroke="currentColor" stroke-width="1.00" stroke-linecap="butt" stroke-linejoin="miter">
	<path stroke='black'  d='M341.4,428.0 L341.4,419.0 M341.4,18.1 L341.4,27.1  '/>	<g transform="translate(341.4,449.9)" stroke="none" fill="black" font-family="Arial" font-size="12.00"  text-anchor="middle">
		<text><tspan font-family="Arial" > 50</tspan></text>
	</g>
</g>
<g fill="none" color="black" stroke="currentColor" stroke-width="1.00" stroke-linecap="butt" stroke-linejoin="miter">
	<path stroke='black'  d='M397.2,428.0 L397.2,419.0 M397.2,18.1 L397.2,27.1  '/>	<g transform="translate(397.2,449.9)" stroke="none" fill="black" font-family="Arial" font-size="12.00"  text-anchor="middle">
		<text><tspan font-family="Arial" > 60</tspan></text>
	</g>
</g>
<g fill="none" color="black" stroke="currentColor" stroke-width="1.00" stroke-linecap="butt" stroke-linejoin="miter">
	<path stroke='black'  d='M453.1,428.0 L453.1,419.0 M453.1,18.1 L453.1,27.1  '/>	<g transform="translate(453.1,449.9)" stroke="none" fill="black" font-family="Arial" font-size="12.00"  text-anchor="middle">
		<text><tspan font-family="Arial" > 70</tspan></text>
	</g>
</g>
<g fill="none" color="black" stroke="currentColor" stroke-width="1.00" stroke-linecap="butt" stroke-linejoin="miter">
	<path stroke='black'  d='M508.9,428.0 L508.9,419.0 M508.9,18.1 L508.9,27.1  '/>	<g transform="translate(508.9,449.9)" stroke="none" fill="black" font-family="Arial" font-size="12.00"  text-anchor="middle">
		<text><tspan font-family="Arial" > 80</tspan></text>
	</g>
</g>
<g fill="none" color="black" stroke="currentColor" stroke-width="1.00" stroke-linecap="butt" stroke-linejoin="miter">
	<path stroke='black'  d='M564.7,428.0 L564.7,419.0 M564.7,18.1 L564.7,27.1  '/>	<g transform="translate(564.7,449.9)" stroke="none" fill="black" font-family="Arial" font-size="12.00"  text-anchor="middle">
		<text><tspan font-family="Arial" > 90</tspan></text>
	</g>
</g>
<g fill="none" color="black" stroke="currentColor" stroke-width="1.00" stroke-linecap="butt" stroke-linejoin="miter">
</g>
<g fill="none" color="black" stroke="currentColor" stroke-width="1.00" stroke-linecap="butt" stroke-linejoin="miter">
	<path stroke='black'  d='M62.2,18.1 L62.2,428.0 L615.0,428.0 L615.0,18.1 L62.2,18.1 Z  '/></g>
<g fill="none" color="black" stroke="currentColor" stroke-width="1.00" stroke-linecap="butt" stroke-linejoin="miter">
</g>
	<g id="gnuplot_plot_1" ><title>pages+cached</title>
<g fill="none" color="black" stroke="currentColor" stroke-width="1.00" stroke-linecap="butt" stroke-linejoin="miter">
	<g transform="translate(279.8,467.9)" stroke="none" fill="black" font-family="Arial" font-size="12.00"  text-anchor="end">
		<text><tspan font-family="Arial" >pages+cached</tspan></text>
	</g>
</g>
<g fill="none" color="black" stroke="currentColor" stroke-width="1.00" stroke-linecap="butt" stroke-linejoin="miter">
	<path stroke='rgb(148,   0, 211)'  d='M288.1,464.0 L330.3,464.0 M62.2,420.1 L67.8,366.7 L73.4,38.7 L79.0,375.7 L84.5,379.6 L90.1,30.4
		L95.7,378.7 L101.3,265.4 L106.9,378.6 L112.5,375.7 L118.0,379.6 L123.6,26.0 L129.2,381.6 L134.8,378.3
		L140.4,377.3 L146.0,377.6 L151.5,29.4 L157.1,380.4 L162.7,374.3 L168.3,381.0 L173.9,383.9 L179.5,378.2
		L185.0,33.8 L190.6,381.8 L196.2,383.6 L201.8,381.0 L207.4,379.0 L213.0,36.9 L218.5,382.1 L224.1,376.6
		L229.7,382.1 L235.3,379.5 L240.9,145.4 L246.5,31.7 L252.1,36.6 L257.6,376.5 L263.2,380.5 L268.8,29.5
		L274.4,385.9 L280.0,33.0 L285.6,381.0 L291.1,380.6 L296.7,378.9 L302.3,376.5 L307.9,382.9 L313.5,379.0
		L319.1,384.8 L324.6,380.4 L330.2,381.3 L335.8,379.5 L341.4,147.5 L347.0,382.9 L352.6,380.9 L358.1,31.6
		L363.7,379.4 L369.3,381.4 L374.9,31.7 L380.5,378.4 L386.1,151.2 L391.6,384.6 L397.2,38.3 L402.8,31.7
		L408.4,383.2 L414.0,32.5 L419.6,381.9 L425.1,384.2 L430.7,378.5 L436.3,383.2 L441.9,384.4 L447.5,378.8
		L453.1,35.0 L458.7,381.5 L464.2,33.9 L469.8,381.8 L475.4,377.6 L481.0,383.9 L486.6,380.1 L492.2,382.0
		L497.7,384.7 L503.3,382.8 L508.9,31.0 L514.5,382.4 L520.1,382.2 L525.7,147.9 L531.2,387.8 L536.8,383.0
		L542.4,383.3 L548.0,382.4 L553.6,37.3 L559.2,36.4 L564.7,383.2 L570.3,383.8 L575.9,379.5 L581.5,381.0
		L587.1,382.7 L592.7,39.2 L598.2,155.4 L603.8,381.0 L609.4,381.6 L615.0,30.1  '/></g>
	</g>
	<g id="gnuplot_plot_2" ><title>pages+cached+nointeractive</title>
<g fill="none" color="black" stroke="currentColor" stroke-width="1.00" stroke-linecap="butt" stroke-linejoin="miter">
	<g transform="translate(279.8,485.9)" stroke="none" fill="black" font-family="Arial" font-size="12.00"  text-anchor="end">
		<text><tspan font-family="Arial" >pages+cached+nointeractive</tspan></text>
	</g>
</g>
<g fill="none" color="black" stroke="currentColor" stroke-width="1.00" stroke-linecap="butt" stroke-linejoin="miter">
	<path stroke='rgb(  0, 158, 115)'  d='M288.1,482.0 L330.3,482.0 M62.2,380.0 L67.8,39.6 L73.4,384.3 L79.0,382.7 L84.5,381.3 L90.1,381.8
		L95.7,376.1 L101.3,41.5 L106.9,35.3 L112.5,148.1 L118.0,37.1 L123.6,384.0 L129.2,382.0 L134.8,380.5
		L140.4,383.9 L146.0,380.4 L151.5,386.8 L157.1,32.9 L162.7,36.7 L168.3,382.7 L173.9,36.9 L179.5,381.7
		L185.0,382.3 L190.6,381.3 L196.2,384.9 L201.8,379.5 L207.4,39.3 L213.0,35.6 L218.5,382.5 L224.1,36.4
		L229.7,144.7 L235.3,152.8 L240.9,151.8 L246.5,41.6 L252.1,37.2 L257.6,150.2 L263.2,381.6 L268.8,381.9
		L274.4,150.9 L280.0,38.4 L285.6,382.0 L291.1,34.1 L296.7,38.6 L302.3,379.6 L307.9,382.5 L313.5,383.5
		L319.1,150.2 L324.6,37.1 L330.2,384.0 L335.8,35.9 L341.4,38.2 L347.0,382.8 L352.6,383.9 L358.1,149.9
		L363.7,150.4 L369.3,153.1 L374.9,35.6 L380.5,34.2 L386.1,44.7 L391.6,38.1 L397.2,32.4 L402.8,35.7
		L408.4,386.4 L414.0,35.7 L419.6,35.4 L425.1,38.3 L430.7,382.0 L436.3,39.3 L441.9,34.5 L447.5,383.1
		L453.1,41.5 L458.7,37.9 L464.2,150.6 L469.8,38.8 L475.4,35.1 L481.0,38.8 L486.6,36.3 L492.2,34.0
		L497.7,36.1 L503.3,36.5 L508.9,388.6 L514.5,36.1 L520.1,33.0 L525.7,385.6 L531.2,391.6 L536.8,383.2
		L542.4,150.3 L548.0,33.9 L553.6,38.8 L559.2,153.7 L564.7,36.4 L570.3,32.4 L575.9,380.4 L581.5,39.6
		L587.1,40.4 L592.7,41.2 L598.2,39.6 L603.8,149.7 L609.4,384.2 L615.0,34.4  '/></g>
	</g>
	<g id="gnuplot_plot_3" ><title>score p10=2336</title>
<g fill="none" color="black" stroke="currentColor" stroke-width="1.00" stroke-linecap="butt" stroke-linejoin="miter">
	<g transform="translate(554.4,467.9)" stroke="none" fill="black" font-family="Arial" font-size="12.00"  text-anchor="end">
		<text><tspan font-family="Arial" >score p10=2336</tspan></text>
	</g>
</g>
<g fill="none" color="black" stroke="currentColor" stroke-width="1.00" stroke-linecap="butt" stroke-linejoin="miter">
	<path stroke='rgb( 86, 180, 233)'  d='M562.7,464.0 L604.9,464.0  '/></g>
	</g>
	<g id="gnuplot_plot_4" ><title>score median=4000</title>
<g fill="none" color="black" stroke="currentColor" stroke-width="1.00" stroke-linecap="butt" stroke-linejoin="miter">
	<g transform="translate(554.4,485.9)" stroke="none" fill="black" font-family="Arial" font-size="12.00"  text-anchor="end">
		<text><tspan font-family="Arial" >score median=4000</tspan></text>
	</g>
</g>
<g fill="none" color="black" stroke="currentColor" stroke-width="1.00" stroke-linecap="butt" stroke-linejoin="miter">
	<path stroke='rgb(230, 159,   0)'  d='M562.7,482.0 L604.9,482.0  '/></g>
	</g>
<g fill="none" color="#FFFFFF" stroke="rgb(230, 159,   0)" stroke-width="2.00" stroke-linecap="butt" stroke-linejoin="miter">
</g>
<g fill="none" color="black" stroke="currentColor" stroke-width="2.00" stroke-linecap="butt" stroke-linejoin="miter">
</g>
<g fill="none" color="black" stroke="black" stroke-width="1.00" stroke-linecap="butt" stroke-linejoin="miter">
</g>
<g fill="none" color="black" stroke="currentColor" stroke-width="1.00" stroke-linecap="butt" stroke-linejoin="miter">
	<path stroke='black'  d='M62.2,18.1 L62.2,428.0 L615.0,428.0 L615.0,18.1 L62.2,18.1 Z  '/></g>
<g fill="none" color="black" stroke="currentColor" stroke-width="1.00" stroke-linecap="butt" stroke-linejoin="miter">
</g>
</g>
</svg>
